X:1
T:A Song the World Is Singing
T:A Song the World Is Singing
T:Joseph Lincoln Hall
T:Irvin H. Mack, 1905
T:Public Domain Courtesy of the Cyber Hymnal™
T:Public Domain Courtesy of the Cyber Hymnal™
T:Public Domain Courtesy of the Cyber Hymnal™
C:Joseph Lincoln Hall
Z:Public Domain
Z:Courtesy of the Cyber Hymnal™
%%score ( 1 2 ) ( 3 4 )
L:1/8
Q:1/4=105
M:4/4
K:A
V:1 treble 
V:2 treble 
V:3 bass 
V:4 bass 
V:1
"^Whole School" E>E | [CA]3 G (FE) (FG) | A2 [Ec]4 [EA]>[EA] | [Ec]2 [FB]2 [EA]2 G2 | %4
w: 1.~There’s a|song of won- * drous *|beau- ty, Like a|peal from an- gel|
w: 2.~There’s a|song, sweet mu- * sic *|peal- ing, ’Tis an|ech- o from on|
w: 3.~Nigh- er|still and high- * er *|swell- ing, Circ- ling|all the list- ening|
 [CA]6 [Ec]>[Ec] | [EB]3 [EB] [^DB]2 [DA]2 | [EG]2 [EB]4 E>E | [EG]2 [CF]2 [B,E]2 [B,^D]2 | %8
w: choirs, For it|sounds o’er care and|du- ty, And ful-|fills the heart’s de-|
w: high, Un- to|all the earth re-|veal- ing Bless- ings|from be- yond the|
w: earth, While its|har- mo- nies are|tell- ing Of the|might- y Sav- ior’s|
 [B,E]6"^Girls or Solo" E>E | [DB]3 [C^A] [DB]2 [^D^B]2 | [Ec]2 [CA]4 E>E | %11
w: sires. O the|ca- dence sweet, as-|cend- ing, Joins the|
w: sky. There is|beau- ty in the|sing- ing, There is|
w: birth! ’Tis a|song like fount- ains|flow- ing From a|
 [DB]3 [C^A] [DB]2 [^D^B]2 | [Ec]6 [Ac]>[Ac] | [Ae]3 [Ae] [Gd]2 [Gd]2 | ([Ac]2 [GB]2) A2 [FA]2 | %15
w: har- mo- ny of|Heav’n, And a|car- ol nev- er|end- * ing, To|
w: joy be- yond com-|pare, For it|comes, sal- va- tion|bring- * ing, To|
w: nev- er fail- ing|stream; Ev- er|on- ward, ev- er|grow- * ing, Man-|
 [EG]3 [EG] [^DG]2 [DF]2 | E6"^Whole School" E>E | E3 E G2 B2 | !fermata![EGBd]6 || %19
w: mor- tal tongues is|giv’n; * *|||
w: man- kind ev- ery-|where; And the|world takes up the|strain:|
w: kind it shall re-|deem; * *|||
"^Refrain" [CEA]2 | [CEA]4 [CE]2 [CEA]2 | [EGB]4 E4 | [EAc]2 [EGB]2 [EAc]2 [FBd]2 | %23
w: ||||
w: O|come, all ye|faith- ful,|Joy- ful and tri-|
w: ||||
 [EAc]4 [EGB]2 [^DFA]2 | [^DFA]4 [EG]2 [DF]2 | ([EG]2 [^DFA]2) [EGB]2 [EAc]2 | G4 [^DF]3 [B,E] | %27
w: ||||
w: umph- ant; O|come ye, O|come * ye, To|Beth- le- hem;|
w: ||||
 [B,E]6 z2 |"^Girls" [ce]4 [Bd]2 [Ac]2 | d4 [Ac]4 | [GB]2 [^Ec]2 [FA]2 [DB]2 | %31
w: ||||
w: |Come and be-|hold Him,|Born the King of|
w: ||||
 ([B,G]3 [A,F]) [G,E]2 [EAce]2 | ([EAce][EAce])([EGBde][EGBde]) ([EAce][EAce])([EGBde][EGBde]) | %33
w: ||
w: an- * gels; *||
w: ||
 ([EAce][EAce][EAce][EAce]) ([EAce][EAce])([EAce][EAce]) | %34
w: |
w: |
w: |
 ([EAce][EAce])([EGBde][EGBde]) ([EAce][EAce])([EGBde][EGBde]) | %35
w: |
w: |
w: |
 ([EAce][EAce][EAce][EAce]) ([EGBde][EGBde])([EAce][EAce]) | %36
w: |
w: * * * * * * O *|
w: |
"^All" d2 [FB] c2 [EA] B2 [EG] A2 [=DF] | G4 ([DE][DE][DE]) A2 ([CE] d2) [DFB] | %38
w: ||
w: come let us a- dore Him, Christ, the|* Lord. * * * * * *|
w: ||
 [EAc]4 [DEGB]3 [CEA] | [CEA]6 |] %40
w: ||
w: ||
w: ||
V:2
 E>E | x3 G FEFG | A2 x6 | x6 (ED) | x8 | x8 | x6 E>E | x8 | x8 | x8 | x6 C2 | x8 | x8 | x8 | %14
 x4 A2 x2 | x8 | E6 E>E | E3 E G2 B2 | x6 || x2 | x8 | x8 | x8 | x8 | x8 | x8 | E2 C2 x4 | x8 | %28
 x8 | (BEFG) x4 | x8 | x8 | x8 | x8 | x8 | x8 | [FB] [EA] [EG] [^DF] x8 | [DE] [CE] [DFB] x10 | %38
 x8 | x6 |] %40
V:3
 E,>E, | [A,,E,]3 G, F,E,F,G, | A,2 [A,C]4 [A,C]>[A,C] | [A,C]2 [D,D]2 [E,C]2 [E,B,]2 | %4
w: O come|* let us a- dore Him,|||
 [A,,A,]6 A,>A, | [G,B,]3 [G,B,] [F,B,]2 [B,,B,]2 | [E,B,]2 [E,G,]4 [E,G,]>[E,G,] | %7
w: * O come|||
 [E,B,]2 [A,,A,]2 [B,,G,]2 (F,A,) | [E,G,]6 z2 | G,3 ^^F, G,4 | [A,,A,]2 [A,,A,]4 [A,,A,]2 | %11
w: ||||
 G,3 ^^F, G,4 | [A,,A,]6 [A,E]>[A,E] | [CE]3 [CE] [B,E]2 [B,E]2 | E4 [CE]2 [F,C]2 | %15
w: |||let * *|
 [B,,B,]3 [B,,B,] [B,,B,]2 [B,,A,]2 | [E,G,]6 E,>E, | E,3 E, G,2 B,2 | !fermata![E,G,B,D]6 || %19
w: |* us a-|dore Him, * *||
 [A,,A,]2 | ([A,,A,]2 [E,,E,]2) [C,,C,]2 [A,,,A,,]2 | %21
w: ||
 ([E,,E,][F,,F,][G,,G,][A,,A,]) ([B,,B,][G,,G,][F,,F,][E,,E,]) | %22
w: |
 [A,,A,]2 [G,,G,]2 [A,,A,]2 ([B,,,B,,][D,,D,]) | ([E,,E,]2 [F,,F,]2) [G,,G,]2 [B,,B,]2 | %24
w: ||
 ([B,,B,]2 [F,,F,]2) [E,,E,]2 [B,,,B,,]2 | ([E,,E,]2 [F,,F,]2) [G,,G,]2 [A,,A,]2 | %26
w: ||
 ([B,,B,]4 [B,,A,]3) [E,G,] | [E,G,]6 z2 | [E,,E,]8- | [E,,E,]4 [A,,A,]4 | %30
w: ||||
 [E,,E,]2 [C,,C,]2 [F,,F,]2 [B,,,B,,]2 | [E,,E,]6"^Boys" A,2 | A,2 G,2 A,2 B,2 | A,4 E,2 C2 | %34
w: ||||
 C2 B,2 C2 D2 | C4 B,2 C2 | [D,D]2 [C,C]2 [B,,B,]2 [A,,A,]2 x4 | %37
w: |||
 ([G,,G,][F,,F,][E,,E,][D,,D,]) ([E,,C,][A,,,C,][B,,,D,][D,,D,]) x5 | %38
w: |
 ([E,,E,]4 [E,,E,]3) [A,,E,A,] | [A,,E,A,]6 |] %40
w: ||
V:4
 E,>E, | x3 G, (F,E,) (F,G,) | x8 | x8 | x6 A,>A, | x8 | x8 | x6 B,,2 | x8 | E,8 | x8 | E,8 | x8 | %13
 x8 | (A,2 B,2) x4 | x8 | x6 E,>E, | E,3 E, G,2 B,2 | x6 || x2 | x8 | x8 | x8 | x8 | x8 | x8 | x8 | %27
 x8 | x8 | x8 | x8 | x8 | x8 | x8 | x8 | x8 | x12 | x13 | x8 | x6 |] %40

